X: 15144
T: Gigue Back à Back
R: jig
M: 6/8
K: Gmajor
D|:GBF GBD|GAB d2d|ded cBA|ded cBA|
GBF GBD|GAB d2d|ded cBA|G2G G2 [1 D:|2 B||
|:ABA ABA|GFE F2 D|ABA GFE|DFA d2A|
ABA AdA|AeA AfA|ABA Aef|gfe d2 [1 B:|2 D||
|:GBF GBD|GAB d2d|ded cBA|ded cBA|
GBF GBD|GAB d2d|ded cBA|G2G G2 [1 D:|2 B||
|:ABA ABA|GFE F2 D|ABA GFE|DFA d2A|
ABA AdA|AeA AfA|ABA Aef|gfe d2 [1 B:|2 D||
GBF GBD|GAB d2d|ded cBA|ded cBA|
GBF GBD|GAB d2d|ded cBA|GBd g3||

